src/_includes/components/icons/data.svg

<svg fill="none" height="26" viewBox="0 0 22 26" width="22" xmlns="http://www.w3.org/2000/svg"><path d="m0 0h22v26h-22z" fill="#f9fafb"/><g fill="#bc3838"><path d="m5.50215 12.132c-.88733 0-1.54733-.33-1.98-.99-.42533-.6673-.638-1.661-.638-2.981s.21267-2.31.638-2.97c.43267-.66733 1.09267-1.001 1.98-1.001s1.54367.33367 1.969 1.001c.43267.66.649 1.65.649 2.97s-.21633 2.3137-.649 2.981c-.42533.66-1.08167.99-1.969.99zm0-.572c.66 0 1.144-.2493 1.452-.748.308-.506.462-1.21733.462-2.134v-1.034c0-.90933-.154-1.617-.462-2.123s-.792-.759-1.452-.759-1.144.253-1.452.759-.462 1.21367-.462 2.123v1.034c0 .91667.154 1.628.462 2.134.308.4987.792.748 1.452.748zm0-2.893c-.19067 0-.32633-.04033-.407-.121s-.121-.17967-.121-.297v-.176c0-.11733.04033-.21633.121-.297s.21633-.121.407-.121.32633.04033.407.121.121.17967.121.297v.176c0 .11733-.04033.21633-.121.297s-.21633.121-.407.121z"/><path d="m14.1921 12v-.572h2.288v-6.622h-.055l-2.112 1.881-.374-.418 2.189-1.947h1.001v7.106h2.145v.572z"/><path d="m3.19215 23v-.572h2.288v-6.622h-.055l-2.112 1.881-.374-.418 2.189-1.947h1.001v7.106h2.145v.572z"/><path d="m16.5021 23.132c-.8873 0-1.5473-.33-1.98-.99-.4253-.6673-.638-1.661-.638-2.981s.2127-2.31.638-2.97c.4327-.6673 1.0927-1.001 1.98-1.001.8874 0 1.5437.3337 1.969 1.001.4327.66.649 1.65.649 2.97s-.2163 2.3137-.649 2.981c-.4253.66-1.0816.99-1.969.99zm0-.572c.66 0 1.144-.2493 1.452-.748.308-.506.462-1.2173.462-2.134v-1.034c0-.9093-.154-1.617-.462-2.123s-.792-.759-1.452-.759-1.144.253-1.452.759-.462 1.2137-.462 2.123v1.034c0 .9167.154 1.628.462 2.134.308.4987.792.748 1.452.748zm0-2.893c-.1906 0-.3263-.0403-.407-.121-.0806-.0807-.121-.1797-.121-.297v-.176c0-.1173.0404-.2163.121-.297.0807-.0807.2164-.121.407-.121.1907 0 .3264.0403.407.121.0807.0807.121.1797.121.297v.176c0 .1173-.0403.2163-.121.297-.0806.0807-.2163.121-.407.121z"/></g></svg>

<svg width="22" height="26" viewBox="0 0 22 26" fill="none" xmlns="http://www.w3.org/2000/svg">
<rect width="22" height="26" fill="#F9FAFB"/>
<path d="M5.50215 12.132C4.61482 12.132 3.95482 11.802 3.52215 11.142C3.09682 10.4747 2.88415 9.481 2.88415 8.161C2.88415 6.841 3.09682 5.851 3.52215 5.191C3.95482 4.52367 4.61482 4.19 5.50215 4.19C6.38948 4.19 7.04582 4.52367 7.47115 5.191C7.90382 5.851 8.12015 6.841 8.12015 8.161C8.12015 9.481 7.90382 10.4747 7.47115 11.142C7.04582 11.802 6.38948 12.132 5.50215 12.132ZM5.50215 11.56C6.16215 11.56 6.64615 11.3107 6.95415 10.812C7.26215 10.306 7.41615 9.59467 7.41615 8.678V7.644C7.41615 6.73467 7.26215 6.027 6.95415 5.521C6.64615 5.015 6.16215 4.762 5.50215 4.762C4.84215 4.762 4.35815 5.015 4.05015 5.521C3.74215 6.027 3.58815 6.73467 3.58815 7.644V8.678C3.58815 9.59467 3.74215 10.306 4.05015 10.812C4.35815 11.3107 4.84215 11.56 5.50215 11.56ZM5.50215 8.667C5.31148 8.667 5.17582 8.62667 5.09515 8.546C5.01448 8.46533 4.97415 8.36633 4.97415 8.249V8.073C4.97415 7.95567 5.01448 7.85667 5.09515 7.776C5.17582 7.69533 5.31148 7.655 5.50215 7.655C5.69282 7.655 5.82848 7.69533 5.90915 7.776C5.98982 7.85667 6.03015 7.95567 6.03015 8.073V8.249C6.03015 8.36633 5.98982 8.46533 5.90915 8.546C5.82848 8.62667 5.69282 8.667 5.50215 8.667Z" fill="#BC3838"/>
<path d="M14.1921 12V11.428H16.4801V4.806H16.4251L14.3131 6.687L13.9391 6.269L16.1281 4.322H17.1291V11.428H19.2741V12H14.1921Z" fill="#BC3838"/>
<path d="M3.19215 23V22.428H5.48015V15.806H5.42515L3.31315 17.687L2.93915 17.269L5.12815 15.322H6.12915V22.428H8.27415V23H3.19215Z" fill="#BC3838"/>
<path d="M16.5021 23.132C15.6148 23.132 14.9548 22.802 14.5221 22.142C14.0968 21.4747 13.8841 20.481 13.8841 19.161C13.8841 17.841 14.0968 16.851 14.5221 16.191C14.9548 15.5237 15.6148 15.19 16.5021 15.19C17.3895 15.19 18.0458 15.5237 18.4711 16.191C18.9038 16.851 19.1201 17.841 19.1201 19.161C19.1201 20.481 18.9038 21.4747 18.4711 22.142C18.0458 22.802 17.3895 23.132 16.5021 23.132ZM16.5021 22.56C17.1621 22.56 17.6461 22.3107 17.9541 21.812C18.2621 21.306 18.4161 20.5947 18.4161 19.678V18.644C18.4161 17.7347 18.2621 17.027 17.9541 16.521C17.6461 16.015 17.1621 15.762 16.5021 15.762C15.8421 15.762 15.3581 16.015 15.0501 16.521C14.7421 17.027 14.5881 17.7347 14.5881 18.644V19.678C14.5881 20.5947 14.7421 21.306 15.0501 21.812C15.3581 22.3107 15.8421 22.56 16.5021 22.56ZM16.5021 19.667C16.3115 19.667 16.1758 19.6267 16.0951 19.546C16.0145 19.4653 15.9741 19.3663 15.9741 19.249V19.073C15.9741 18.9557 16.0145 18.8567 16.0951 18.776C16.1758 18.6953 16.3115 18.655 16.5021 18.655C16.6928 18.655 16.8285 18.6953 16.9091 18.776C16.9898 18.8567 17.0301 18.9557 17.0301 19.073V19.249C17.0301 19.3663 16.9898 19.4653 16.9091 19.546C16.8285 19.6267 16.6928 19.667 16.5021 19.667Z" fill="#BC3838"/>
</svg>
